img/get-started/clouds/03.svg

<svg width="515" height="276" viewBox="0 0 515 276" fill="none" xmlns="http://www.w3.org/2000/svg">
<g filter="url(#filter0_d_9_353)">
<path d="M247.705 40C209.877 40 179.21 71.2744 179.21 109.853H316.2C316.2 71.2744 285.534 40 247.705 40Z" fill="#6E8DFF"/>
<path d="M304.101 73.48C220.713 73.48 153.114 141.766 153.114 226H455.088C455.088 141.766 387.489 73.48 304.101 73.48Z" fill="#6C8BFF"/>
<path d="M127.018 99.5201C81.7205 99.5201 45 136.161 45 181.36H209.035C209.035 136.161 172.315 99.5201 127.018 99.5201Z" fill="#567AFF"/>
<path d="M412.215 121.84C380.301 121.84 354.43 148.488 354.43 181.36H470C470 148.488 444.129 121.84 412.215 121.84Z" fill="#567AFF"/>
</g>
<defs>
<filter id="filter0_d_9_353" x="0" y="0" width="515" height="276" filterUnits="userSpaceOnUse" color-interpolation-filters="sRGB">
<feFlood flood-opacity="0" result="BackgroundImageFix"/>
<feColorMatrix in="SourceAlpha" type="matrix" values="0 0 0 0 0 0 0 0 0 0 0 0 0 0 0 0 0 0 127 0" result="hardAlpha"/>
<feOffset dy="5"/>
<feGaussianBlur stdDeviation="22.5"/>
<feColorMatrix type="matrix" values="0 0 0 0 0.593724 0 0 0 0 0.684469 0 0 0 0 0.888646 0 0 0 0.1 0"/>
<feBlend mode="normal" in2="BackgroundImageFix" result="effect1_dropShadow_9_353"/>
<feBlend mode="normal" in="SourceGraphic" in2="effect1_dropShadow_9_353" result="shape"/>
</filter>
</defs>
</svg>

<svg width="515" height="276" fill="none" xmlns="http://www.w3.org/2000/svg"><g filter="url(#filter0_d_9_353)"><path d="M247.705 40c-37.828 0-68.495 31.274-68.495 69.853H316.2C316.2 71.274 285.534 40 247.705 40z" fill="#6E8DFF"/><path d="M304.101 73.48c-83.388 0-150.987 68.286-150.987 152.52h301.974c0-84.234-67.599-152.52-150.987-152.52z" fill="#6C8BFF"/><path d="M127.018 99.52C81.721 99.52 45 136.161 45 181.36h164.035c0-45.199-36.72-81.84-82.017-81.84zm285.197 22.32c-31.914 0-57.785 26.648-57.785 59.52H470c0-32.872-25.871-59.52-57.785-59.52z" fill="#567AFF"/></g><defs><filter id="filter0_d_9_353" x="0" y="0" width="515" height="276" filterUnits="userSpaceOnUse" color-interpolation-filters="sRGB"><feFlood flood-opacity="0" result="BackgroundImageFix"/><feColorMatrix in="SourceAlpha" values="0 0 0 0 0 0 0 0 0 0 0 0 0 0 0 0 0 0 127 0" result="hardAlpha"/><feOffset dy="5"/><feGaussianBlur stdDeviation="22.5"/><feColorMatrix values="0 0 0 0 0.593724 0 0 0 0 0.684469 0 0 0 0 0.888646 0 0 0 0.1 0"/><feBlend in2="BackgroundImageFix" result="effect1_dropShadow_9_353"/><feBlend in="SourceGraphic" in2="effect1_dropShadow_9_353" result="shape"/></filter></defs></svg>
